shader_type canvas_item;

void vertex() {
	bool my_bool = true;
	if(10 == 9)
	{
		
	}
	else 
	{
		
	}
	
	int i = 0;
	while(i < 10)
	{
		
		i += 1;
	}
	
	for (int j = 10; j < 5; j++)
	{
		
	}
	
	int my_int = 1;
	switch(my_int)
	{
		case 1: 
			break;
		case 2:
			break;
		case 3:
			break;
		default:
			break;
	}
	
	do
	{
		
	} while(false);
}

void fragment() {
}
